X: 7315
T: Cleveland Park
R: jig
M: 6/8
K: Aminor
|:EAB cBA|FAB cBA|GAB cBA|B/c/dB GAB|
EAB cBA|FAB cBA|B/c/dB GBd|dcB A3:|
Ace aee|def e3|FAc EAc|cBA ^GAB|
Ace aec|def ecA|FAc EAc|BA^G A3|
Ace aee|def e3|FAc EAc|cBA ^GAB|
EAB cBA|FAB cBA|B/c/dB GBd|dcB A3||

